X:257
T: ICH GLAUB AN GOTT IN ALLER NOTH
N: B0737
O: Europa, Mitteleuropa, Deutschland
R: Lob - Lied, religioes
M: 4/4
L: 1/8
K: G
D2G2A2 | B4c2B2 | A2G2A4 | z2
D2G2A2 | B2d2c2B2 | A4G2z2 | z2
D2G2A2 | B4c2B2 | A2G2A4 | z2
D2G2A2 | B2d2c2B2 | A4G2z2 |
G4GABc | d4e2d2 | c2B2A2Bc | d2
c2B2A2 | B2d2c2B2 | A4G2z2 | z2

@@@ Tune index: 2475
